X:1402
T:D\'ulam\'an na Binne Bu\'i
O:england
R:reel
H:Originally a highland, but Mary Bergin plays it as a reel.
N:The title means "Seaweed from the Yellow Rock"
D:Mary Bergin: Feadoga Stain 2
M:C|
K:G
GABG cABG|GABc dBg2|GABG cABG|~A3B cdBG|
~G3B cdBG|GABc dBg2|GABG cABG|~A3B c2BA||
|:BcdB gBdG|BGdf g2~G2|BcdB gBdB|1 ~A3B c2BA:|2 ~A3B cdBA||
